public/icons/quotation.svg

<svg width="29" height="21" viewBox="0 0 29 21" fill="none" xmlns="http://www.w3.org/2000/svg">
<path fill-rule="evenodd" clip-rule="evenodd" d="M22.4238 6.15135C23.4371 4.73135 25.3518 3.20468 27.9584 1.93135C28.6358 1.60069 28.3318 0.576685 27.5824 0.671352C22.1051 1.36469 18.5558 3.76335 16.6158 7.33002C15.8958 8.65802 15.4424 10.07 15.2011 11.5113C15.0411 12.462 14.9998 13.1754 14.9998 13.9994C14.9998 15.7675 15.7021 17.4632 16.9524 18.7134C18.2026 19.9636 19.8983 20.666 21.6664 20.666C23.4345 20.666 25.1302 19.9636 26.3805 18.7134C27.6307 17.4632 28.3331 15.7675 28.3331 13.9994C28.3331 10.318 25.3011 7.33002 21.8158 7.33002C21.9998 6.82602 22.0438 6.68335 22.4238 6.15135ZM7.7571 6.15135C8.77043 4.73135 10.6851 3.20468 13.2918 1.93135C13.9691 1.60069 13.6651 0.576685 12.9158 0.671352C7.43843 1.36469 3.8891 3.76335 1.94909 7.33002C1.2291 8.65802 0.775761 10.07 0.534428 11.5113C0.374428 12.462 0.333096 13.1754 0.333096 13.9994C0.333096 15.7675 1.03547 17.4632 2.28572 18.7134C3.53596 19.9636 5.23165 20.666 6.99976 20.666C8.76787 20.666 10.4636 19.9636 11.7138 18.7134C12.964 17.4632 13.6664 15.7675 13.6664 13.9994C13.6664 10.318 10.6344 7.33002 7.14909 7.33002C7.33309 6.82602 7.3771 6.68335 7.7571 6.15135Z" fill="#B4A297"/>
</svg>

<svg xmlns="http://www.w3.org/2000/svg" width="29" height="21" fill="none"><path fill="#B4A297" fill-rule="evenodd" d="M22.424 6.151c1.013-1.42 2.928-2.946 5.534-4.22.678-.33.374-1.354-.376-1.26-5.477.694-9.026 3.092-10.966 6.659a13.352 13.352 0 0 0-1.415 4.181A13.92 13.92 0 0 0 15 14a6.666 6.666 0 1 0 13.333 0c0-3.681-3.032-6.669-6.517-6.669.184-.504.228-.647.608-1.179Zm-14.667 0c1.013-1.42 2.928-2.946 5.535-4.22.677-.33.373-1.354-.376-1.26-5.478.694-9.027 3.092-10.967 6.659a13.353 13.353 0 0 0-1.415 4.181A13.92 13.92 0 0 0 .334 14a6.666 6.666 0 1 0 13.332 0c0-3.681-3.032-6.669-6.517-6.669.184-.504.228-.647.608-1.179Z" clip-rule="evenodd"/></svg>
